lib/brands/icons/apple-finder.svg

<svg xmlns="http://www.w3.org/2000/svg" fill="none" aria-hidden="true" viewBox="0 0 48 48"><g id="apple-finder-Icon"><g id="Group 600"><g id="bg" filter="url(#filter0_d_94_17110)"><rect width="32" height="27.4286" x="8" y="10.2857" fill="#283544" rx="13.7143"/></g><path id="right" fill="url(#paint0_linear_94_17110)" fill-rule="evenodd" d="M25.3883 10.2857H39.0336C39.5166 10.2857 39.8789 10.6162 39.9996 11.1669V36.833C39.9996 37.2736 39.5166 37.7143 39.0336 37.7143H27.9242C27.4411 36.1721 27.1996 34.6299 26.9581 33.0878C29.8562 32.537 32.5128 31.2151 34.3242 29.1222C34.9279 28.2409 33.8411 27.6902 33.3581 28.2409C32.0298 30.2237 29.494 31.4354 26.8374 31.8761C26.4751 27.4699 26.8374 23.9449 26.8374 23.9449H22.1279C22.1279 23.9449 22.1279 16.895 25.3883 10.2857ZM31.426 20.6403C32.0298 20.6403 32.3921 20.1996 32.3921 19.759V17.9965C32.3921 17.4458 31.9091 17.1153 31.426 17.1153C30.8223 17.1153 30.46 17.5559 30.46 17.9965V19.759C30.46 20.3098 30.943 20.6403 31.426 20.6403Z" clip-rule="evenodd"/><path id="left" fill="url(#paint1_linear_94_17110)" fill-rule="evenodd" d="M23.9396 33.3081C19.9547 33.3081 15.9698 31.8761 13.5547 29.1222C12.9509 28.2409 14.0377 27.6902 14.5208 28.2409C16.4528 30.7745 20.1963 32.0964 23.9396 32.0964C24.8036 32.0964 25.8717 31.9862 25.8717 31.9862C25.5094 28.9019 25.6302 26.148 25.7509 24.8261H21.1623V23.9449C21.1623 23.9449 21.1623 16.895 24.4226 10.2857H8.96604C8.36226 10.2857 8 10.7263 8 11.1669V36.833C8 37.2736 8.48302 37.7143 8.96604 37.7143H26.8571C26.7999 37.4738 26.7426 37.2401 26.6861 37.0098C26.3912 35.8068 26.1187 34.6954 25.9924 33.1979C25.9924 33.1979 24.5893 33.3081 23.9396 33.3081ZM16.4528 17.1153C15.8491 17.1153 15.4868 17.5559 15.4868 17.9965V19.759C15.4868 20.1996 15.9698 20.5301 16.4528 20.5301C16.9358 20.5301 17.4189 20.1996 17.4189 19.759V17.9965C17.4189 17.5559 17.0566 17.1153 16.4528 17.1153Z" clip-rule="evenodd"/></g></g><defs><filter id="filter0_d_94_17110" width="34" height="29.4285" x="7" y="9.78571" color-interpolation-filters="sRGB" filterUnits="userSpaceOnUse"><feFlood flood-opacity="0" result="BackgroundImageFix"/><feColorMatrix in="SourceAlpha" result="hardAlpha" values="0 0 0 0 0 0 0 0 0 0 0 0 0 0 0 0 0 0 127 0"/><feOffset dy="0.5"/><feGaussianBlur stdDeviation="0.5"/><feColorMatrix values="0 0 0 0 0 0 0 0 0 0 0 0 0 0 0 0 0 0 0.25 0"/><feBlend in2="BackgroundImageFix" result="effect1_dropShadow_94_17110"/><feBlend in="SourceGraphic" in2="effect1_dropShadow_94_17110" result="shape"/></filter><linearGradient id="paint0_linear_94_17110" x1="31.0638" x2="31.0638" y1="10.2857" y2="37.7143" gradientUnits="userSpaceOnUse"><stop stop-color="#F7F6F7"/><stop offset="1" stop-color="#D9E4F0"/></linearGradient><linearGradient id="paint1_linear_94_17110" x1="17.4286" x2="17.4286" y1="10.2857" y2="37.7143" gradientUnits="userSpaceOnUse"><stop stop-color="#2FD4FB"/><stop offset="1" stop-color="#2777EE"/></linearGradient></defs></svg>

<svg xmlns="http://www.w3.org/2000/svg" fill="none" aria-hidden="true" viewBox="0 0 48 48"><g filter="url(#a)"><rect width="32" height="27.429" x="8" y="10.286" fill="#283544" rx="13.714"/></g><path fill="url(#b)" fill-rule="evenodd" d="M25.388 10.286h13.646c.483 0 .845.33.966.88v25.667c0 .44-.483.881-.966.881h-11.11c-.483-1.542-.724-3.084-.966-4.626 2.898-.551 5.555-1.873 7.366-3.966.604-.881-.483-1.432-.966-.881-1.328 1.983-3.864 3.194-6.52 3.635-.363-4.406 0-7.931 0-7.931h-4.71s0-7.05 3.26-13.66Zm6.038 10.354c.604 0 .966-.44.966-.881v-1.762c0-.551-.483-.882-.966-.882-.604 0-.966.44-.966.882v1.762c0 .55.483.881.966.881Z" clip-rule="evenodd"/><path fill="url(#c)" fill-rule="evenodd" d="M23.94 33.308c-3.985 0-7.97-1.432-10.385-4.186-.604-.881.483-1.432.966-.881 1.932 2.534 5.675 3.855 9.419 3.855.864 0 1.932-.11 1.932-.11-.363-3.084-.242-5.838-.121-7.16h-4.589v-.881s0-7.05 3.26-13.66H8.967c-.604 0-.966.441-.966.882v25.666c0 .44.483.881.966.881h17.891l-.17-.704c-.296-1.203-.568-2.315-.695-3.812 0 0-1.403.11-2.052.11Zm-7.487-16.193c-.604 0-.966.44-.966.882v1.762c0 .44.483.771.966.771s.966-.33.966-.771v-1.762c0-.441-.362-.882-.966-.882Z" clip-rule="evenodd"/><defs><linearGradient id="b" x1="31.064" x2="31.064" y1="10.286" y2="37.714" gradientUnits="userSpaceOnUse"><stop stop-color="#F7F6F7"/><stop offset="1" stop-color="#D9E4F0"/></linearGradient><linearGradient id="c" x1="17.429" x2="17.429" y1="10.286" y2="37.714" gradientUnits="userSpaceOnUse"><stop stop-color="#2FD4FB"/><stop offset="1" stop-color="#2777EE"/></linearGradient><filter id="a" width="34" height="29.428" x="7" y="9.786" color-interpolation-filters="sRGB" filterUnits="userSpaceOnUse"><feFlood flood-opacity="0" result="BackgroundImageFix"/><feColorMatrix in="SourceAlpha" result="hardAlpha" values="0 0 0 0 0 0 0 0 0 0 0 0 0 0 0 0 0 0 127 0"/><feOffset dy=".5"/><feGaussianBlur stdDeviation=".5"/><feColorMatrix values="0 0 0 0 0 0 0 0 0 0 0 0 0 0 0 0 0 0 0.25 0"/><feBlend in2="BackgroundImageFix" result="effect1_dropShadow_94_17110"/><feBlend in="SourceGraphic" in2="effect1_dropShadow_94_17110" result="shape"/></filter></defs></svg>
